X: 1
T: Dunse Dings A'
M: 4/4
L: 1/8
R: reel
K: Amix
ceeg aecA|ceeg a3e|ceeg aecA|B=GGB =g3 d:|
cAeA fAeA|cAeg a3e|cAeA fAeA|B=GGB =g3 d |
cAeA fAeA|cAeg a3e|cAeA fAeA|B=GGB =gdBG|]
